X:1
L:1/4
Q:1/4=200
M:6/8
V:1
V:2 clef=bass
K:F
[V:1] [CE]3/4 z/4 [CE]3/4 z/4 [A,D]/C/ | [F,A,D]3/4 z z/4 A,/C/ | [F,A,D]3/4 z/4 [F,A,D]3/4 z/4 [A,D]/[A,F]/ | [B,DG]3/4 z/4 [B,DG]3/4 z/4 [DG]/[DA]/ |
[V:2] [C,,C,]3/4 z3/4 [A,,,A,,]3/4 z3/4 | [D,,D,]3/4 z3/4 [D,,D,]3/4 z3/4 | [D,,D,]3/4 z3/4 [D,,D,]3/4 z3/4 | [B,,,B,,]3/4 z3/4 [B,,,B,,]3/4 z3/4 |